assets/Pound banknote/Flat/pound_banknote_flat.svg

<svg width="32" height="32" viewBox="0 0 32 32" fill="none" xmlns="http://www.w3.org/2000/svg">
<path d="M2 10C2 8.89543 2.89543 8 4 8H28C29.1046 8 30 8.89543 30 10V24C30 25.1046 29.1046 26 28 26H4C2.89543 26 2 25.1046 2 24V10Z" fill="#BCA4EB"/>
<path d="M3 11C3 9.89543 3.89543 9 5 9H27C28.1046 9 29 9.89543 29 11V23C29 24.1046 28.1046 25 27 25H5C3.89543 25 3 24.1046 3 23V11ZM5 10C4.44772 10 4 10.4477 4 11V23C4 23.5523 4.44772 24 5 24H27C27.5523 24 28 23.5523 28 23V11C28 10.4477 27.5523 10 27 10H5ZM2 28C2 29.1046 2.89543 30 4 30H28C29.1046 30 30 29.1046 30 28V24C30 25.1046 29.1046 26 28 26H4C2.89543 26 2 25.1046 2 24V28ZM26 17C26 19.4853 23.9853 21.5 21.5 21.5C19.0147 21.5 17 19.4853 17 17C17 14.5147 19.0147 12.5 21.5 12.5C23.9853 12.5 26 14.5147 26 17Z" fill="#635994"/>
<path d="M19 8H15V30H19V8Z" fill="#FFF478"/>
<path d="M19 26H15V30H19V26Z" fill="#F3AD61"/>
<path d="M6 17.5C6 17.2239 6.22386 17 6.5 17H7.5V14.786C7.49468 14.4873 7.54898 14.1906 7.65972 13.9133C7.77046 13.6359 7.93541 13.3833 8.14493 13.1705C8.35445 12.9576 8.60432 12.7887 8.87992 12.6735C9.15552 12.5584 9.45132 12.4994 9.75 12.5C10.0309 12.4748 10.314 12.5073 10.5818 12.5956C10.8497 12.684 11.0966 12.8262 11.3074 13.0136C11.5182 13.2009 11.6884 13.4295 11.8075 13.6851C11.9266 13.9407 11.9921 14.2181 12 14.5C12 14.6326 11.9473 14.7598 11.8536 14.8535C11.7598 14.9473 11.6326 15 11.5 15C11.3674 15 11.2402 14.9473 11.1464 14.8535C11.0527 14.7598 11 14.6326 11 14.5C10.995 14.263 10.888 13.5 9.75 13.5C9.5827 13.5009 9.41727 13.5351 9.26338 13.6008C9.1095 13.6664 8.97027 13.7621 8.85385 13.8822C8.73743 14.0024 8.64616 14.1446 8.5854 14.3004C8.52464 14.4563 8.49561 14.6227 8.5 14.79V17H10C10.2761 17 10.5 17.2239 10.5 17.5C10.5 17.7761 10.2761 18 10 18H8.5V20.29C8.51315 20.5079 8.48192 20.7262 8.40821 20.9317C8.39996 20.9547 8.39121 20.9775 8.38195 21H12.5C12.7761 21 13 21.2239 13 21.5C13 21.7761 12.7761 22 12.5 22H6.5C6.22386 22 6 21.7761 6 21.5C6 21.2239 6.22386 21 6.5 21H6.90563L6.91 21C7.447 21 7.498 20.454 7.5 20.286V18H6.5C6.22386 18 6 17.7761 6 17.5Z" fill="white"/>
</svg>

<svg xmlns="http://www.w3.org/2000/svg" width="32" height="32" fill="none"><path fill="#BCA4EB" d="M2 10a2 2 0 0 1 2-2h24a2 2 0 0 1 2 2v14a2 2 0 0 1-2 2H4a2 2 0 0 1-2-2V10Z"/><path fill="#635994" d="M3 11a2 2 0 0 1 2-2h22a2 2 0 0 1 2 2v12a2 2 0 0 1-2 2H5a2 2 0 0 1-2-2V11Zm2-1a1 1 0 0 0-1 1v12a1 1 0 0 0 1 1h22a1 1 0 0 0 1-1V11a1 1 0 0 0-1-1H5ZM2 28a2 2 0 0 0 2 2h24a2 2 0 0 0 2-2v-4a2 2 0 0 1-2 2H4a2 2 0 0 1-2-2v4Zm24-11a4.5 4.5 0 1 1-9 0 4.5 4.5 0 0 1 9 0Z"/><path fill="#FFF478" d="M19 8h-4v22h4V8Z"/><path fill="#F3AD61" d="M19 26h-4v4h4v-4Z"/><path fill="#fff" d="M6 17.5a.5.5 0 0 1 .5-.5h1v-2.214A2.245 2.245 0 0 1 9.75 12.5a2.067 2.067 0 0 1 2.25 2 .5.5 0 0 1-1 0c-.005-.237-.112-1-1.25-1a1.256 1.256 0 0 0-1.25 1.29V17H10a.5.5 0 0 1 0 1H8.5v2.29a1.613 1.613 0 0 1-.118.71H12.5a.5.5 0 0 1 0 1h-6a.5.5 0 0 1 0-1H6.91c.537 0 .588-.546.59-.714V18h-1a.5.5 0 0 1-.5-.5Z"/></svg>
